source/svgs/bowtie/uEA2E-repo.svg

<svg xmlns="http://www.w3.org/2000/svg" viewBox="0 0 448 448" enable-background="new 0 0 448 448"><path d="M0 0v128h32v320h384v-320h32v-128h-448zm384 416h-320v-288h96v192l64-64 64 64v-192h96v288zm32-320h-384v-64h384v64z"/></svg>

<svg xmlns="http://www.w3.org/2000/svg" viewBox="0 0 448 448"><path d="M0 0v128h32v320h384V128h32V0H0zm384 416H64V128h96v192l64-64 64 64V128h96v288zm32-320H32V32h384v64z"/></svg>
